public/images/tumblr-logo.svg

<?xml version="1.0" encoding="UTF-8" standalone="no"?>
<svg width="30px" height="30px" viewBox="0 0 30 30" version="1.1" xmlns="http://www.w3.org/2000/svg" xmlns:xlink="http://www.w3.org/1999/xlink" xmlns:sketch="http://www.bohemiancoding.com/sketch/ns">
    <!-- Generator: Sketch 3.4.2 (15855) - http://www.bohemiancoding.com/sketch -->
    <title>Rectangle 1</title>
    <desc>Created with Sketch.</desc>
    <defs></defs>
    <g id="Page-1" stroke="none" stroke-width="1" fill="none" fill-rule="evenodd" sketch:type="MSPage">
        <path d="M0,3.00001915 C0,1.34315432 1.34731857,0 3.00001915,0 L26.9999809,0 C28.6568457,0 30,1.34731857 30,3.00001915 L30,26.9999809 C30,28.6568457 28.6526814,30 26.9999809,30 L3.00001915,30 C1.34315432,30 0,28.6526814 0,26.9999809 L0,3.00001915 Z M16.865,24.958 C12.629,24.958 11.02,21.834 11.02,19.627 L11.02,13.105 L9,13.105 L9,10.527 C12.027,9.436 12.756,6.705 12.927,5.149 C12.938,5.042 13.022,5 13.07,5 L15.994,5 L15.994,10.084 L19.987,10.084 L19.987,13.105 L15.979,13.105 L15.979,19.318 C15.993,20.149 16.291,21.287 17.815,21.287 C17.843,21.287 17.872,21.287 17.9,21.286 C18.43,21.272 19.14,21.118 19.511,20.941 L20.471,23.788 C20.11,24.317 18.481,24.932 17.015,24.957 C16.964,24.958 16.915,24.958 16.865,24.958 Z" id="Rectangle-1" fill="#FFFFFF" sketch:type="MSShapeGroup"></path>
    </g>
</svg>

<?xml version="1.0" encoding="utf-8"?>
<!-- Generator: Adobe Illustrator 21.1.0, SVG Export Plug-In . SVG Version: 6.00 Build 0)  -->
<svg version="1.1" id="Layer_1" xmlns:sketch="http://www.bohemiancoding.com/sketch/ns"
	 xmlns="http://www.w3.org/2000/svg" xmlns:xlink="http://www.w3.org/1999/xlink" x="0px" y="0px" viewBox="0 0 30 30"
	 enable-background="new 0 0 30 30" xml:space="preserve">
<title>Rectangle 1</title>
<desc>Created with Sketch.</desc>
<path id="Rectangle-1" sketch:type="MSShapeGroup" d="M0,3c0-1.7,1.3-3,3-3h24c1.7,0,3,1.3,3,3v24c0,1.7-1.3,3-3,3H3
	c-1.7,0-3-1.3-3-3V3z"/>
<path fill="#FFFFFF" d="M16.9,25c-4.2,0-5.8-3.1-5.8-5.3v-6.5H9v-2.6c3-1.1,3.8-3.8,3.9-5.4C12.9,5,13,5,13.1,5H16v5.1h4v3h-4v6.2
	c0,0.8,0.3,2,1.8,2c0,0,0.1,0,0.1,0c0.5,0,1.2-0.2,1.6-0.3l1,2.8c-0.4,0.5-2,1.1-3.5,1.2C17,25,16.9,25,16.9,25z"/>
</svg>
